icon/lg/symfony.svg

<?xml version="1.0" encoding="UTF-8" standalone="no"?>
<svg viewBox="0 0 256 257" version="1.1" xmlns="http://www.w3.org/2000/svg" xmlns:xlink="http://www.w3.org/1999/xlink" preserveAspectRatio="xMidYMid" height="1em" width="1em">
  <g>
    <circle fill="#1A171B" cx="128" cy="128.827077" r="128"/>
    <path d="M183.7056,48.1240615 C170.720492,48.5769846 159.3856,55.7331692 150.949415,65.6344615 C141.607385,76.4888615 135.392492,89.3636923 130.914462,102.506338 C122.903631,95.9409231 116.724185,87.4417231 103.872985,83.7356308 C93.9401846,80.8841846 83.5072,82.0617846 73.9131077,89.2100923 C69.3681231,92.6050462 66.2370462,97.7368615 64.7483077,102.561477 C60.8925538,115.0976 68.8009846,126.255262 72.3928615,130.260677 L80.2461538,138.677169 C81.8648615,140.327385 85.7639385,144.632123 83.8577231,150.803692 C81.7979077,157.514831 73.7083077,161.858954 65.4099692,159.298954 C61.7038769,158.168615 56.3790769,155.407754 57.5724308,151.520492 C58.0647385,149.929354 59.2029538,148.739938 59.8134154,147.365415 C60.3726769,146.183877 60.6404923,145.297723 60.8098462,144.777846 C62.3261538,139.8272 60.2545231,133.387815 54.9533538,131.753354 C50.0066462,130.237046 44.9457231,131.438277 42.9843692,137.806769 C40.7591385,145.041723 44.2210462,158.172554 62.7672615,163.8912 C84.4957538,170.566892 102.876554,158.735754 105.483815,143.304862 C107.126154,133.639877 102.762338,126.460062 94.7672615,117.224369 L88.2530462,110.020923 C84.3067077,106.078523 82.9518769,99.3595077 87.0360615,94.1961846 C90.4822154,89.8402462 95.3895385,87.9812923 103.427938,90.1671385 C115.160615,93.3533538 120.390892,101.494154 129.118523,108.059569 C125.514831,119.878892 123.159631,131.741538 121.028923,142.379323 L119.729231,150.311385 C113.490708,183.032123 108.729108,200.999385 96.3544615,211.314215 C93.8614154,213.086523 90.2971077,215.741046 84.9250462,215.926154 C82.1090462,216.0128 81.1992615,214.075077 81.1598769,213.232246 C81.0929231,211.255138 82.7588923,210.349292 83.8656,209.4592 C85.5197538,208.557292 88.0206769,207.060677 87.8513231,202.267569 C87.6701538,196.604062 82.9794462,191.6928 76.1974154,191.917292 C71.1168,192.090585 63.3737846,196.871877 63.6652308,205.623138 C63.9684923,214.661908 72.3928615,221.436062 85.0944,221.006769 C91.8843077,220.7744 107.047385,218.0096 121.989908,200.247138 C139.382154,179.885292 144.246154,156.542031 147.904985,139.456985 L151.989169,116.901415 C154.257723,117.173169 156.683815,117.354338 159.322585,117.417354 C180.984123,117.874215 191.818831,106.653538 191.980308,98.4930462 C192.086646,93.5542154 188.738954,88.6941538 184.052185,88.8044308 C180.696615,88.8989538 176.482462,91.1320615 175.470277,95.7715692 C174.481723,100.324431 182.362585,104.432246 176.202831,108.421908 C171.8272,111.253662 163.981785,113.250462 152.9344,111.627815 L154.943015,100.525292 C159.042954,79.4702769 164.099938,53.5709538 183.284185,52.9408 C184.682338,52.8699077 189.7984,53.0038154 189.916554,56.3869538 C189.952,57.5172923 189.672369,57.8048 188.349046,60.3923692 C187.002092,62.4088615 186.494031,64.1260308 186.557046,66.0992 C186.742154,71.4752 190.830277,75.008 196.741908,74.7953231 C204.658215,74.5393231 206.934646,66.8317538 206.804677,62.8736 C206.485662,53.5748923 196.682831,47.6987077 183.7056,48.1240615 L183.7056,48.1240615 Z" fill="#FFFFFF"/>
  </g>
</svg>

<svg width="256" height="257" xmlns="http://www.w3.org/2000/svg" preserveAspectRatio="xMidYMid"><circle fill="#1A171B" cx="128" cy="128.827" r="128"/><path d="M183.706 48.124c-12.986.453-24.32 7.61-32.757 17.51-9.342 10.855-15.557 23.73-20.035 36.872-8.01-6.565-14.19-15.064-27.041-18.77-9.933-2.852-20.366-1.674-29.96 5.474-4.545 3.395-7.676 8.527-9.165 13.351-3.855 12.537 4.053 23.694 7.645 27.7l7.853 8.416c1.619 1.65 5.518 5.955 3.612 12.127-2.06 6.71-10.15 11.055-18.448 8.495-3.706-1.13-9.03-3.891-7.838-7.779.493-1.59 1.631-2.78 2.241-4.155.56-1.181.827-2.067.997-2.587 1.516-4.95-.555-11.39-5.857-13.025-4.946-1.516-10.007-.315-11.969 6.054-2.225 7.235 1.237 20.366 19.783 26.084 21.729 6.676 40.11-5.155 42.717-20.586 1.642-9.665-2.722-16.845-10.717-26.08l-6.514-7.204c-3.946-3.942-5.301-10.661-1.217-15.825 3.446-4.356 8.354-6.215 16.392-4.029 11.733 3.186 16.963 11.327 25.69 17.893-3.603 11.819-5.958 23.682-8.09 34.32l-1.299 7.931c-6.238 32.721-11 50.688-23.375 61.003-2.493 1.773-6.057 4.427-11.429 4.612-2.816.087-3.726-1.85-3.765-2.694-.067-1.977 1.599-2.883 2.706-3.773 1.654-.902 4.155-2.398 3.985-7.191-.18-5.664-4.872-10.575-11.654-10.35-5.08.173-12.823 4.954-12.532 13.705.303 9.039 8.728 15.813 21.43 15.384 6.79-.233 21.952-2.997 36.895-20.76 17.392-20.362 22.256-43.705 25.915-60.79l4.084-22.556c2.269.272 4.695.453 7.334.516 21.661.457 32.496-10.763 32.657-18.924.107-4.939-3.241-9.799-7.928-9.689-3.355.095-7.57 2.328-8.582 6.968-.988 4.552 6.893 8.66.733 12.65-4.376 2.832-12.221 4.828-23.269 3.206l2.009-11.103c4.1-21.055 9.157-46.954 28.341-47.584 1.398-.071 6.514.063 6.633 3.446.035 1.13-.245 1.418-1.568 4.005-1.347 2.017-1.855 3.734-1.792 5.707.185 5.376 4.273 8.909 10.185 8.696 7.916-.256 10.193-7.963 10.063-11.921-.32-9.3-10.122-15.175-23.1-14.75Z" fill="#FFF"/></svg>
